icons/ansi-a-portrait-32.svg

<?xml version="1.0" encoding="UTF-8"?><svg id="icons" xmlns="http://www.w3.org/2000/svg" viewBox="0 0 32 32"><defs><style>.cls-1{fill:none;}.cls-1,.cls-2,.cls-3{stroke-width:0px;}.cls-2{opacity:.25;}</style></defs><rect class="cls-1" width="32" height="32"/><path class="cls-3" d="M19.29999,2H5v10h1V3h12v8h8v18H6v-2h-1v3h22V9.69897l-7.70001-7.69897ZM19,10V3l7,7h-7ZM4.76056,22h5.62207l1.67657,4h.7408l-1.72841-4.94263v-.05737h-.02405l-2.93384-7h-1.08423l-2.93384,7h-.02405v.05737l-2.07159,4.94263h1.08398l1.67657-4ZM7.57159,15.29346l2.39185,5.70654h-4.78369l2.39185-5.70654Z"/><path class="cls-2" d="M18,6H6v-3h12v3Z"/></svg>

<svg xmlns="http://www.w3.org/2000/svg" viewBox="0 0 32 32"><path stroke-width="0" fill="none" d="M0 0h32v32H0z"/><path d="M19.3 2H5v10h1V3h12v8h8v18H6v-2H5v3h22V9.699L19.3 2zm-.3 8V3l7 7h-7zM4.76 22h5.623l1.676 4h.741l-1.728-4.943V21h-.024l-2.934-7H7.029l-2.933 7h-.024v.057L2 26h1.084l1.677-4zm2.812-6.707L9.963 21H5.18l2.392-5.707z" stroke-width="0"/><path d="M18 6H6V3h12v3z" opacity=".25" stroke-width="0"/></svg>
